X: 8463
T: Craigellachie Brig
R: strathspey
M: 4/4
K: Dmajor
A,|D<DF>A d/c/B/A/ F<D|E<=C=c>E (G2 G>)B|A<DF>A d/c/B/A/ F<D|E<ec>A d2 d>f|
D<DF>A d/c/B/A/ F<D|E<=C=c>E (G2 G>)B|A<DF>A d/c/B/A/ F<D|E<ec>A (d2 d<)f||
d<df>g/a/ d>af<a|=c>ge>f (g2 g>)a/b/|a>df>d a>dg<b|a>df>d f/g<a f2|
d<df>a d>af<a|g/f/e/d/ =c>e g>b a>g|f<ae>f d<fB>d|A<Fd>F (A2 A)||
B/c/|d/c/B/A/ G/F/E/D/ d/c/B/A/ G/F/E/D/|E<=C=c>E (G2 G>)E|D/E/F/G/ A/B/c/d/ D/E/F/G/ A/B/c/d/|D>d c<d A2 F>E|
D>dE>d F>dD>d|E<=c=c>E (G2 G>)E|D>dE>d F>dA>d|E<ec>A (d2 d<)f||
d<df>g/a/ d>af<a|=c>g e>f g2 g<b|a>df>d a>d g<b|a>df>d f/g<a f2|
d<df>g/a/ d>af<a|g/f/e/d/ =c>e g>ba<g|f<ae>f d<fB>d|A<Fd>F (A2 A)||

